lib/brands/icons/webmoney.svg

<svg xmlns="http://www.w3.org/2000/svg" fill="none" aria-hidden="true" viewBox="0 0 48 48"><g id="webmoney-Icon"><circle id="bg" cx="24" cy="24" r="21" fill="#036CB5"/><path id="webmoney" fill="white" d="M23.9286 9C26.2691 9 28.4959 9.54451 30.4942 10.5185C30.8076 10.6621 31.123 10.8339 31.4354 11.0059L30.0652 12.2383L28.0111 10.0892L24.4717 13.2409L22.3875 10.9769L15.8791 16.8514L20.046 21.4648L18.4193 22.8972L22.5303 27.5107L20.9035 28.9425L26.7841 35.5046L30.2646 32.2951L33.2918 35.7346C32.6918 36.1931 32.0353 36.6525 31.3225 37.053C29.1527 38.285 26.6404 39 23.9575 39C15.7072 39 9.00009 32.2676 9.00009 23.9871C8.97096 15.7626 15.6792 9 23.9286 9ZM21.1879 23.0695L24.7561 19.86L27.9539 23.4417L24.3849 26.6509L21.1879 23.0695ZM23.7291 29.2591L27.2683 26.0212L30.4942 29.6026L26.9258 32.8122L23.7291 29.2591ZM18.6488 16.9664L22.2161 13.7569L25.4131 17.3386L21.8447 20.5479L18.6488 16.9664ZM25.1844 15.2465L27.8393 12.8397L30.2377 15.5047L27.5827 17.94L25.1844 15.2465ZM29.9234 26.2785L32.5774 23.8715L34.9757 26.5643L32.3206 28.9728L29.9234 26.2785ZM32.2637 31.6948L34.9188 29.2874L37.3151 31.9522L34.6611 34.3872L32.2637 31.6948ZM33.3487 19.3155L35.1182 17.7107L36.7162 19.4879L34.9469 21.0922L33.3487 19.3155ZM31.065 14.0144L32.8347 12.3815L34.4339 14.1864L32.6629 15.7911L31.065 14.0144ZM35.6035 24.617L37.373 23.0124L39 24.789L37.2023 26.3933L35.6035 24.617ZM27.6396 20.6339L30.2947 18.2269L32.6919 20.8913L30.038 23.2988L27.6396 20.6339Z"/></g></svg>

<svg xmlns="http://www.w3.org/2000/svg" fill="none" aria-hidden="true" viewBox="0 0 48 48"><circle cx="24" cy="24" r="21" fill="#036CB5"/><path fill="#fff" d="M23.929 9c2.34 0 4.567.545 6.565 1.518.314.144.629.316.941.488l-1.37 1.232-2.054-2.149-3.54 3.152-2.084-2.264-6.508 5.874 4.167 4.614-1.627 1.432 4.111 4.614-1.627 1.431 5.881 6.563 3.48-3.21 3.028 3.44c-.6.458-1.257.918-1.97 1.318A14.874 14.874 0 0 1 23.959 39C15.707 39 9 32.268 9 23.987 8.971 15.763 15.68 9 23.93 9Zm-2.741 14.07 3.568-3.21 3.198 3.582-3.57 3.209-3.196-3.581Zm2.541 6.19 3.54-3.239 3.225 3.582-3.568 3.21-3.197-3.554Zm-5.08-12.294 3.567-3.21 3.197 3.583-3.568 3.209-3.196-3.582Zm6.535-1.72 2.655-2.406 2.399 2.665-2.655 2.435-2.399-2.694Zm4.74 11.033 2.653-2.407 2.399 2.692-2.655 2.409-2.398-2.694Zm2.34 5.416 2.655-2.408 2.396 2.665-2.654 2.435-2.397-2.692Zm1.085-12.38 1.77-1.604 1.597 1.777-1.77 1.604-1.597-1.776Zm-2.284-5.3 1.77-1.633 1.599 1.804-1.771 1.605-1.598-1.777Zm4.538 10.602 1.77-1.605L39 24.79l-1.798 1.604-1.599-1.776Zm-7.963-3.983 2.655-2.407 2.397 2.664-2.654 2.408-2.398-2.665Z"/></svg>
